X:342
T: Jackson's Rowly Powly
N: O'Farrell's Pocket Companion v.4 (Sky ed. p.148)
M: 6/8
L: 1/8
Q: 320
R: jig
K: Em
z| EFE G2E| B2E G2E| F2D AFD| dFD AFD|
EFE G2E| B2E G2E| B/c/dB F/G/AF| GEE E2 :|
f| gfg e/f/ge| gfg e2g| f/g/af dfd| f/g/af def|
gfg e/f/ge| gfg e2f| g/a/bg f/g/af| gee e2f|
g/a/bg e/f/ge| g/a/bg e/f/ge| f/g/af dfd| f/g/af def|
g/a/bg f/g/af| e/f/ge d/e/fd| B/c/dB F/G/AF| GEE E2 :|
